img/shuffle.svg

<?xml version="1.0" encoding="utf-8"?><!-- Generated by IcoMoon.io --><!DOCTYPE svg PUBLIC "-//W3C//DTD SVG 1.1//EN" "http://www.w3.org/Graphics/SVG/1.1/DTD/svg11.dtd"><svg version="1.1" xmlns="http://www.w3.org/2000/svg" xmlns:xlink="http://www.w3.org/1999/xlink" width="20" height="20" viewBox="0 0 20 20" data-tags="shuffle"><g fill="#444" transform="scale(0.01953125 0.01953125)"><path d="M772.762 342.733h47.104v146.534l204.134-206.029-204.186-206.080v122.214h-47.104c-189.133 0-295.731 140.186-389.837 263.782-84.582 111.206-157.696 207.309-275.763 207.309h-107.11v143.309h107.162c189.133 0 295.731-140.083 389.837-263.782 84.582-111.258 157.696-207.258 275.763-207.258zM276.992 433.050c8.090-10.394 16.179-21.094 24.422-31.898 19.968-26.317 41.165-54.016 64.102-81.715-67.686-63.181-149.248-109.773-258.355-109.773h-107.162v143.309h107.162c67.942 0 120.934 31.898 169.83 80.077zM819.814 680.653h-47.104c-72.038 0-127.334-35.891-178.739-88.986-5.12 6.707-10.291 13.517-15.514 20.326-22.579 29.696-46.848 61.491-73.677 93.082 69.427 67.789 153.6 118.989 267.878 118.989h47.104v122.778l204.237-206.080-204.186-206.080v145.971z" /></g></svg>

<?xml version="1.0" encoding="utf-8"?>
<!-- Generator: Adobe Illustrator 16.0.0, SVG Export Plug-In . SVG Version: 6.00 Build 0)  -->
<!DOCTYPE svg PUBLIC "-//W3C//DTD SVG 1.1//EN" "http://www.w3.org/Graphics/SVG/1.1/DTD/svg11.dtd">
<svg version="1.1" id="Layer_1" xmlns="http://www.w3.org/2000/svg" xmlns:xlink="http://www.w3.org/1999/xlink" x="0px" y="0px"
	 width="20px" height="20px" viewBox="0 0 20 20" enable-background="new 0 0 20 20" xml:space="preserve">
<g transform="scale(0.01953125 0.01953125)">
	<path fill="#FFFFFF" d="M772.76,342.73h47.15v146.551l204.103-206.027L819.811,77.152v122.227H772.71
		c-189.103,0-295.729,140.176-389.83,263.777c-84.576,111.201-157.702,207.303-275.778,207.303H0v143.352h107.151
		c189.152,0,295.754-140.102,389.855-263.803C581.607,438.732,654.708,342.73,772.76,342.73L772.76,342.73z M277.004,433.057
		c8.075-10.4,16.175-21.1,24.425-31.9c19.95-26.326,41.15-54,64.101-81.701c-67.7-63.201-149.252-109.801-258.378-109.801H0V352.98
		h107.151C175.103,352.98,228.103,384.881,277.004,433.057L277.004,433.057z M819.811,680.66H772.71
		c-72.001,0-127.302-35.9-178.702-88.951c-5.15,6.699-10.301,13.5-15.551,20.299c-22.55,29.701-46.851,61.502-73.676,93.102
		c69.426,67.752,153.627,118.951,267.879,118.951h47.101v122.803l204.252-206.104L819.811,534.684V680.66L819.811,680.66z"/>
</g>
</svg>
